X:4170
T:Paddy's Leather Britches
M:6/8
O:Scotland
R:Pipe Jig
Z:Richard Robinson 
%%TUNEURL: http://www.leeds.ac.uk/music/Info/RRTuneBk/gettune/00000b04.html
%%ID:00000b04
K:B min
B>BB f2e|f>BB f2e|B>BB f2e|c>AA fec|\
B>BB f2e|f>BB f2e|fga efa|c>AA fec::\
a3 f2e|f>BB f2e|a3 f2e|c>AA fec|\
a3 f2e|f>BB f2e|fga efa|cAA fec::\
B>BB c>cc|B>BB f2e|c>cc B>BB|A>AA fec|\
B>BB cBc|Bce f2e|fga efa|c>AA fec::\
aga f2e|f>BB f2e|a>ga f2e|cAA fec|\
aga f2e|f>BB f2e|fga efa|cAA fec|]
